svg/database_arrow_left_outline.svg

<svg xmlns="http://www.w3.org/2000/svg" viewBox="0 0 24 24"><path d="M20 13.09V7c0-2.21-3.58-4-8-4S4 4.79 4 7v10c0 2.21 3.59 4 8 4 .46 0 .9 0 1.33-.06A6 6 0 0 1 13 19v-.05c-.32.05-.65.05-1 .05-3.87 0-6-1.5-6-2v-2.23c1.61.78 3.72 1.23 6 1.23.65 0 1.27-.04 1.88-.11A5.99 5.99 0 0 1 19 13c.34 0 .67.04 1 .09m-2-.64c-1.3.95-3.58 1.55-6 1.55s-4.7-.6-6-1.55V9.64c1.47.83 3.61 1.36 6 1.36s4.53-.53 6-1.36zM12 9C8.13 9 6 7.5 6 7s2.13-2 6-2 6 1.5 6 2-2.13 2-6 2m10 9v2h-4v2l-3-3 3-3v2z"/></svg>

<?xml version="1.0" encoding="UTF-8"?><!DOCTYPE svg PUBLIC "-//W3C//DTD SVG 1.1//EN" "http://www.w3.org/Graphics/SVG/1.1/DTD/svg11.dtd"><svg xmlns="http://www.w3.org/2000/svg" xmlns:xlink="http://www.w3.org/1999/xlink" version="1.1" id="mdi-database-arrow-left-outline" width="24" height="24" viewBox="0 0 24 24"><path d="M20 13.09V7C20 4.79 16.42 3 12 3S4 4.79 4 7V17C4 19.21 7.59 21 12 21C12.46 21 12.9 21 13.33 20.94C13.12 20.33 13 19.68 13 19L13 18.95C12.68 19 12.35 19 12 19C8.13 19 6 17.5 6 17V14.77C7.61 15.55 9.72 16 12 16C12.65 16 13.27 15.96 13.88 15.89C14.93 14.16 16.83 13 19 13C19.34 13 19.67 13.04 20 13.09M18 12.45C16.7 13.4 14.42 14 12 14S7.3 13.4 6 12.45V9.64C7.47 10.47 9.61 11 12 11S16.53 10.47 18 9.64V12.45M12 9C8.13 9 6 7.5 6 7S8.13 5 12 5 18 6.5 18 7 15.87 9 12 9M22 18V20H18V22L15 19L18 16V18H22Z" /></svg>
